assets/img/header-logo.svg

<svg width="298" height="77" viewBox="0 0 298 77" xmlns="http://www.w3.org/2000/svg"><path d="M86.676 76.904l-23.612-.281-23.652-45.116H16.964v45.678H.098V.024h16.866v14.195h23.113l6.261-.843 5.622-3.655 4.076-4.497.984-5.2 22.91.14-.844 5.341-4.216 8.292s-3.731 4.72-6.044 6.606c-2.526 2.06-7.824 4.861-9.557 5.756v1.413zm28.672-12.789C96.75 47.615 90.842 22.139 98.361-.014h22.241a40.054 40.054 0 0 0-4.551 13.812c-3.027 21.967 12.326 42.229 34.294 45.256 21.967 3.028 42.229-12.326 45.256-34.293A39.975 39.975 0 0 0 191.04-.014h20.84c6.684 19.722 2.887 42.377-11.921 59.069-7.575 8.539-17.043 14.403-27.213 17.52H137.48c-7.945-2.441-15.508-6.584-22.132-12.46zM262.925.024l6.043 9.697 6.184-9.697h21.223l-17.709 28.415v48.043h-21.223V27.597L240.437-.117z" fill="#efefef"/></svg>

<?xml version="1.0" encoding="utf-8"?>
<svg version="1.1" id="Layer_1" x="0px" y="0px" width="298px" height="77px" viewBox="0 0 298 77" enable-background="new 0 0 298 77" xmlns="http://www.w3.org/2000/svg">
  <path style="fill: rgb(239, 239, 239);" d="M 86.676 76.904 L 63.064 76.623 L 39.412 31.507 L 16.964 31.507 L 16.964 77.185 L 0.098 77.185 L 0.098 0.024 L 16.964 0.024 L 16.964 14.219 L 40.077 14.219 L 46.338 13.376 L 51.96 9.721 L 56.036 5.224 L 57.02 0.024 L 79.93 0.164 L 79.086 5.505 L 74.87 13.797 C 74.87 13.797 71.139 18.517 68.826 20.403 C 66.3 22.463 61.002 25.264 59.269 26.159 L 59.269 27.572 Z"/>
  <path style="fill: rgb(216, 216, 216); stroke: rgb(0, 0, 0);" d="M 71.918 82.385"/>
  <path d="M 115.348 64.115 C 96.75 47.615 90.842 22.139 98.361 -0.014 L 120.602 -0.014 C 118.316 4.157 116.739 8.807 116.051 13.798 C 113.024 35.765 128.377 56.027 150.345 59.054 C 172.312 62.082 192.574 46.728 195.601 24.761 C 196.824 15.882 195.045 7.282 191.04 -0.014 L 211.88 -0.014 C 218.564 19.708 214.767 42.363 199.959 59.055 C 192.384 67.594 182.916 73.458 172.746 76.575 L 137.48 76.575 C 129.535 74.134 121.972 69.991 115.348 64.115 Z" style="fill: rgb(239, 239, 239);"/>
  <path style="fill: rgb(239, 239, 239);" d="M 262.925 0.024 L 268.968 9.721 L 275.152 0.024 L 296.375 0.024 L 278.666 28.439 L 278.666 76.482 L 257.443 76.482 L 257.443 27.597 L 240.437 -0.117 Z"/>
</svg>
